docs/images/icons/arrow-menu.svg

<svg width="28" height="8" viewBox="0 0 28 8" fill="none" xmlns="http://www.w3.org/2000/svg">
<path d="M27.8418 4.6703C28.0371 4.47504 28.0371 4.15845 27.8418 3.96319L24.6599 0.781212C24.4646 0.58595 24.148 0.58595 23.9527 0.781212C23.7575 0.976474 23.7575 1.29306 23.9527 1.48832L26.7812 4.31675L23.9527 7.14517C23.7575 7.34044 23.7575 7.65702 23.9527 7.85228C24.148 8.04754 24.4646 8.04754 24.6599 7.85228L27.8418 4.6703ZM0.488281 4.81675L27.4883 4.81675V3.81675L0.488281 3.81675V4.81675Z" fill="white"/>
</svg>

<svg width="28" height="8" fill="none" xmlns="http://www.w3.org/2000/svg"><path d="M27.842 4.67a.5.5 0 0 0 0-.707L24.66.781a.5.5 0 0 0-.707.707l2.828 2.829-2.828 2.828a.5.5 0 0 0 .707.707l3.182-3.182ZM.488 4.817h27v-1h-27v1Z" fill="#fff"/></svg>
